resources/images/question.svg

<?xml version="1.0" encoding="utf-8"?>
<!-- Generator: Adobe Illustrator 23.0.3, SVG Export Plug-In . SVG Version: 6.00 Build 0)  -->
<svg version="1.0" id="Layer_1" xmlns="http://www.w3.org/2000/svg" xmlns:xlink="http://www.w3.org/1999/xlink" x="0px" y="0px"
	 viewBox="0 0 16 16" enable-background="new 0 0 16 16" xml:space="preserve">
<g id="question">
	<path fill="none" stroke="#ED6B21" stroke-width="2" stroke-linecap="round" stroke-miterlimit="10" d="M4,5c0,0,0,0,0-1s1-2,2-2
		s3,0,4,0c2,0,2,2,2,3v1c0,1-1,2-2,2S9,8,9,8s1,0,0,0s-2,1-2,2s0,1,0,1"/>
	<circle fill="#ED6B21" cx="7" cy="14" r="1"/>
</g>
</svg>

<svg width="16" height="16" viewBox="0 0 16 16" fill="none" xmlns="http://www.w3.org/2000/svg">
<path d="M4 5C4 5 4 5 4 4C4 3 5 2 6 2C7 2 9 2 10 2C12 2 12 4 12 5V6C12 7 11 8 10 8C9 8 9 8 9 8C9 8 10 8 9 8C8 8 7 9 7 10C7 11 7 11 7 11" stroke="#73CA94" stroke-width="2" stroke-miterlimit="10" stroke-linecap="round"/>
<path d="M7 15C7.55228 15 8 14.5523 8 14C8 13.4477 7.55228 13 7 13C6.44772 13 6 13.4477 6 14C6 14.5523 6.44772 15 7 15Z" fill="#73CA94"/>
</svg>
